X: 93
T:Rhediad i'r Odyn
T:A Run to the Lime-Kiln
M:6/8
L:1/8
Q:130
S:Cadw Twmpath Collection
R:Jig
A:Wales
Z:brian_martin12345@yahoo.com
K:D
A|A2dd2d|B2gg2g|f2eB2c|d2dd2:||!
d|B2gg2g|B2dg2g|B2dg2f|efd cBA|!
A2dd2d|B2gg2f|a2A ABc|d3d2||
